X: 2
T: Cluck Old Hen
B: canberra pickers and fiddlers
B: old time tunes update
B: songs
B: traditional songs
B: tunes
M:4/4
L:1/4
Q: 1/4=100
K:Adorian
V:1 
%Z:abc-transcription Josh Larios <hades@elsewhere.org>, 2014.01.13
"A"e (a/e/"G"g) a/(g/ | "A"e) (a/e/) "G"df | "A"e a/e/ "G"(g/f/)g/(f/ | "E"e/)(d/c) "A"A2 :|
|: "A"A A "C"[ce]2 | "A"A A "G"G2 | "A"A (A/B/ c/)B/c/(d/ | "E"e/d/) c "A"A A :|
W: My old hen’s a good old hen
W: She lays eggs for the railroad men
W: Sometimes 8 and sometimes ten
W: That’s enough for the railroad men
W: 
W: Cluck old hen cluck and sing
W: You ain’t laid an egg since late last spring
W: Cluck old hen cluck and squall
W: Ain’t laid an egg since late last fall
W: 
W: Cluck old hen cluck when I tell you
W: Cluck old hen or I’m gonna sell you
W: Last time she cackled cackled in the lot
W: Next time she cackles cackle in the pot
W: 
W: My old hen she’s a good old hen
W: She lays eggs for the railroad men
W: Sometimes 1 sometimes two
W: Sometimes enough for the whole damn crew
% abcbook-tune_id 6298c245272c56e27c8d69ff
% abcbook-tune_composer_id 
% abcbook-link-0 https://www.youtube.com/watch?v=qizwcdHAWNU
% abcbook-link-title-0 Cluck Old Hen (1927) The Hillbillies
% abcbook-link-start-at-0 4
% abcbook-link-end-at-0 168
% abcbook-boost 0
% abcbook-difficulty 0
% abcbook-tags jims roots and blues,max campbell,old time tunes,ralph cullen,© free
% abcbook-tablature 
% abcbook-transpose -5
% abcbook-tuning DDAD
% abcbook-lastupdated 1739277627882
% abcbook-src-url https://tunebook.net/scrape/traditional%20songs.abc
% abcbook-soundfonts 
% abcbook-repeats 1
%%MIDI transpose -5


